storage/app/icons/phosphoricons/light/paw-print-light.svg

<svg xmlns="http://www.w3.org/2000/svg" fill="currentColor" viewBox="0 0 256 256"><path d="M212 82a26 26 0 1 0 26 26 26 26 0 0 0-26-26m0 40a14 14 0 1 1 14-14 14 14 0 0 1-14 14M70 108a26 26 0 1 0-26 26 26 26 0 0 0 26-26m-26 14a14 14 0 1 1 14-14 14 14 0 0 1-14 14m48-36a26 26 0 1 0-26-26 26 26 0 0 0 26 26m0-40a14 14 0 1 1-14 14 14 14 0 0 1 14-14m72 40a26 26 0 1 0-26-26 26 26 0 0 0 26 26m0-40a14 14 0 1 1-14 14 14 14 0 0 1 14-14m22.15 104.61a37.32 37.32 0 0 1-17.82-22.33 42 42 0 0 0-80.66 0 37.26 37.26 0 0 1-17.77 22.3A38 38 0 0 0 88 222a37.6 37.6 0 0 0 14.76-3 66.14 66.14 0 0 1 50.41 0 37.7 37.7 0 0 0 14.83 3 38 38 0 0 0 18.15-71.39M168 210a25.9 25.9 0 0 1-10.21-2.08 78.15 78.15 0 0 0-59.65 0 26 26 0 0 1-22.46-46.82 49.28 49.28 0 0 0 23.51-29.48 30 30 0 0 1 57.62 0 49.27 49.27 0 0 0 23.57 29.5A26 26 0 0 1 168 210"/></svg>

<svg xmlns="http://www.w3.org/2000/svg" viewBox="0 0 256 256" fill="currentColor"><path d="M212,82a26,26,0,1,0,26,26A26,26,0,0,0,212,82Zm0,40a14,14,0,1,1,14-14A14,14,0,0,1,212,122ZM70,108a26,26,0,1,0-26,26A26,26,0,0,0,70,108ZM44,122a14,14,0,1,1,14-14A14,14,0,0,1,44,122ZM92,86A26,26,0,1,0,66,60,26,26,0,0,0,92,86Zm0-40A14,14,0,1,1,78,60,14,14,0,0,1,92,46Zm72,40a26,26,0,1,0-26-26A26,26,0,0,0,164,86Zm0-40a14,14,0,1,1-14,14A14,14,0,0,1,164,46Zm22.15,104.61a37.32,37.32,0,0,1-17.82-22.33,42,42,0,0,0-80.66,0A37.26,37.26,0,0,1,69.9,150.58,38,38,0,0,0,88,222a37.58,37.58,0,0,0,14.76-3,66.14,66.14,0,0,1,50.41,0A37.66,37.66,0,0,0,168,222a38,38,0,0,0,18.15-71.39ZM168,210a25.93,25.93,0,0,1-10.21-2.08,78.15,78.15,0,0,0-59.65,0A26,26,0,0,1,75.68,161.1a49.28,49.28,0,0,0,23.51-29.48,30,30,0,0,1,57.62,0,49.27,49.27,0,0,0,23.57,29.5A26,26,0,0,1,168,210Z"/></svg>
